X:1
T:Eichendorff-Lieder
T:Der Freund
T:Joseph von Eichendorff
T:Hugo Wolf
T:1. Der Freund
T:Eichendorff-Lieder
T:OpenScore (CC0)
T:OpenScore (CC0)
T:OpenScore (CC0)
T:OpenScore (CC0)
T:OpenScore (CC0)
T:OpenScore (CC0)
C:Hugo Wolf
Z:Joseph von Eichendorff
Z:OpenScore (CC0)
%%score 1 { ( 2 4 ) | 3 }
L:1/8
Q:1/4=110
M:4/4
K:E
V:1 treble nm="Part_1"
V:2 treble nm="Piano"
V:4 treble 
V:3 bass 
V:1
"^Mässig" z8 | B2 B3/2 B/ =c2 c2 | B4 G2 G2 | G3 G (3(G2 F2) E2 | G6 z2 | B2 B B ^A2 G2 | %6
w: |Wer auf den Wo- gen|schlie- fe, ein|sanft ge- wieg- * tes|Kind,|kennt nicht des Le- bens|
w: |Who on life's sea would|slum- ber, as|rocked in in- * fant's|cot,|knows not of griefs, that|
 F4 ^E2 D2 | C2 ^A2 A3"^poco rit." G[Q:1/4=100] |[Q:1/4=110]"^a tempo" F6 z2 | z8 | %10
w: Tie- fe, vor|sü- ssem Träu- men|blind.||
w: cum- ber the|dreams of mort- al|lot.||
 =d2 d3/2 d/ d2 d2 | c2 f2 z2 c2 | =d3 d d2 d2 | e4 z2 e2 | =f3 f e2 ^d2 | e2 E2 z2 e2 | %16
w: Doch wen die Stür- me|fas- sen zu|wil- dem Tanz und|Fest, wen|hoch auf dunk- len|Stra- ssen die|
w: But who mid tem- pests|rag- ing has|fought with all his|might, an|hon- est war- fare|wag- ing 'gainst|
 =f3 f f2 f2 | =f4- f z!f! f2- |"^sehr rhythmisch" f2 _e3/2 =d/!mf! (=c>_e) (d>c) | %19
w: fal- sche Welt ver-|lässt: _ Der|_ lernt sich wak- * ker *|
w: sin and world- ly|spite: _ Death's|_ i- mage ne- * ver *|
 _B2 =F2 z2 z F | ^F2- (3(F^G) A G2- (3(GA) =B | ^A2- (3(AB) c =d4- | d2 =d2 d2 d2 | c2 B2 z2 B2 | %24
w: rüh- ren, durch|Nacht _ _ und Klip- * * pen|hin _ _ lernt der|_ das Steu- er|füh- ren mit|
w: fear- ing, with|strong _ _ right arm _ _ and|hand, _ _ with God|_ his ves- sel|steer- ing, he'll|
"^sehr breit" B3 B B3 c | d4 z4 | %26
w: sich- rem, ern- stem|Sinn.|
w: guide her safe to|land.|
"^etwas belebter, jedoch immer gemessen"!p![Q:1/4=112] B2 B3/2 B/ B2 B2 |!f! B2!p! C2 z2 C2 | %28
w: Der ist von ech- tem|Ker- ne, er-|
w: He cares not what be-|tide him, on|
 c3 c c2 c2 | D4 z4 | d2 d3/2 d/ d2 d2 | e4 E4 |[Q:1/4=97]"^breit" B2 A[Q:1/4=95] G G2 F2 | %33
w: probt zu Lust und|Pein,|der glaubt an Gott und|Ster- ne,|der soll mein Schiff- mann|
w: shore or storm- racked|sea,|he'll trust the stars to|guide him:|he shall my helms- man|
 E2 z2 z4 |] %34
w: sein!|
w: be!|
V:2
!p! z2 [G,B,G]2 z2 [G,B,G]2 | z2 [G,B,G]2 z2 [=G,^A,=G]2 | z2 [^G,B,^G]2 z2 [G,B,G]2 | %3
 z2 [G,B,G]2 z2 [A,EA]2 | z2 [G,B,G]2 z2 [G,B,G]2 | z2 [B,DB]2 z2 [^A,^E^A]2 | %6
 z2 [=A,D=A]2 z2 [A,DA]2 | z2 [^A,F^A]2 z2 [B,^Ec]2 | z2 ((([Bdf]4 [F^Ac]2))) | %9
 z2!<(! ((((([Bdf]4 [F^Ac])))))!<)! z |!ff! (3=DDD (3DDD (3[G^eg][Geg][Geg] (3[Geg][Geg][Geg] | %11
 (3[^Af^a][Afa][Afa]!mf! (3z!<(! [B,B][^B,^B] (3[Cc][^^C^^c][Dd] (3[Ee][^E^e]!<)![Ff] | %12
!ff! (3=DDD (3DDD (3[G=fg][Gfg][Gfg] (3[Gfg][Gfg][Gfg] | %13
 (3[ceac'][ceac']!mf![ceac']!<(! (3z [=D=d][^D^d] (3[Ee][=F=f][^F^f] (3[=G=g][^G^g]!<)![Aa] | %14
!ff! (3=FFF (3FFF (3[A=fa][Afa][Afa] (3[Afa][Afa][Afa] | %15
 (3[Begb][Begb][Begb]!p! (3z!<(! [A,A][^A,^A] (3[B,B][^B,^B][Cc] (3[=D=d][^D^d]!<)!!mf![Ee] | %16
!p! (3[=F=c=f][Fcf][Fcf]"_cresc." (3[Fcf][Fcf][Fcf] (3[_G_df][Gdf][Gdf] (3[Gdf][Gdf][Gdf] | %17
!f!!<(! (3[=G_d=f][Gdf][Gdf] (3[G=df][Gdf][Gdf] (3[^G_ef][Gef][Gef] (3[Aef][Aef]!<)![Aef] | %18
!ff! (3[_B=f_b][Bfb][Bfb] [Bfb] z!p! (3[=FAf][FAf][FAf] [FAf] z | %19
 z3/2!<(! [_B,=D]<[B,D][B,=F]/ [B,F]>!<)!!f![F_B] (3.[FB].=d.[F=f] | %20
 z3/2!p! [^F,^C^F]/ [F,CF] z z3/2"_cresc." [^G,=D^G]/ [G,DG] z | %21
"_cresc." z3/2 [^A,E=G^A]/ [A,EGA] z (3z [B,B][Cc] (3[=D=d][Ee][Ff] | %22
!f! [=GB=d=g] z !>![GBdg]z/!>![GBdg]/ !>![GBdg] z !>![GBdg] z | %23
 z3/2 [B,=F]<[B,F]!<(![B,FB]/ [B,FB]>[FB=d] (3de=f!<)! | %24
 z3/2!ff! !>![^F^d^f]/ !>![Fdf]2 z3/2 !>![=Ge=g]/ !>![Geg]2 | %25
 z3/2!ff! !>![ABdfb]<!>![ABdfb] !>![B,B]/ !>![B,B]2 !>![B,B]2 | %26
 z3/2!p! [B,EG]<[B,EG][B,EG]/!<(! [B,EG]>[B,EG][B,EG]>[B,EG]!<)! | %27
!f! [B,^EG]3/2!p! [CAc]<[CAc][CAc]/ [CAc]>[CAc][CAc]>[CAc] | %28
 z3/2!p! [C^Ec]<!<(![CEc][CEc]/ [CEc]>[CEc]!<)!!f![CBc]>[CBc] | %29
!p!!<(! [DBc]3/2 [Dcd]<[Dcd][Dcd]/ [Dcd]>[Dcd]!<)!!f![Dcd]>[Dcd] | %30
!mf! z3/2!<(! [DBd]<[DBd][DBd]/ [DBd]>[DBd][DBd]>[D=Ad]!<)! | %31
!f!!<(! [Ede]>[Ede][Ede]>[E=de] [Ece]>[EAe][EABe]>[EA^ce]!<)! | %32
!ff! !^![EBe]2 !^![EAce]2 !^![EGBe]2 !^![DAd]2 | !^![EGBe]4 z4 |] %34
V:3
 (3(B,,C,B,, (3E,,F,,E,,) (3(B,,C,B,, (3E,,F,,E,,) | %1
 (3(B,,C,B,, (3E,,F,,E,,) (3(=C,=D,C, (3E,,F,,E,,) | %2
 (3(B,,^C,B,, (3E,,F,,E,,) (3(B,,C,B,, (3E,,F,,E,,) | %3
 (3(B,,C,B,, (3E,,F,,E,,) (3(=C,=D,C, (3E,,F,,E,,) | %4
 (3(B,,^C,B,, (3E,,F,,E,,) (3(B,,C,B,, (3E,,F,,E,,) | %5
 (3(D,E,D, (3G,,A,,G,,) (3(^A,,B,,A,, (3^^C,,D,,C,,) | %6
 (3(=A,,B,,A,, (3^B,,,C,,B,,,) (3(A,,B,,A,, (3B,,,C,,B,,,) | %7
 (3(^A,,B,,A,, (3C,,=D,,C,, (3D,,^D,,=D,, (3C,,^D,,^E,,) | %8
"^a tempo" (3(C,^D,C, (3F,,G,,F,,) (3(C,D,C, (3F,,G,,F,,) | %9
 (3(C,D,C, (3F,,G,,=G,,) (3[F,,,F,,][^G,,,^G,,][^^G,,,^^G,,] (3[^A,,,^A,,][B,,,B,,][C,,C,] | %10
 [=D,,=D,]2 [D,,D,]>D, [D,^E,G,B,]4 | %11
 (3[F,,,F,,][G,,,G,,][^^G,,,^^G,,] (3[^A,,,^A,,][B,,,B,,][^B,,,^B,,] (3[C,,C,][^^C,,^^C,][D,,D,] (3[E,,E,][^E,,^E,][F,,F,] | %12
 [=D,,=D,]2 [D,,D,]>[D,,D,] [D,=F,G,B,]2 [D,F,G,B,]>[D,F,G,B,] | %13
 (3[A,,,A,,][B,,,B,,][^B,,,^B,,] (3[C,,C,][=D,,=D,][^D,,^D,] (3[E,,E,][=F,,=F,][^F,,^F,] (3[=G,,=G,][^G,,^G,][A,,A,] | %14
 [=F,,=F,]2 F,>[F,=F] [F,F]4 | %15
 (3[E,,,E,,][F,,,F,,][=G,,,=G,,] (3[^G,,,^G,,][A,,,A,,][^A,,,^A,,] (3[B,,,B,,][^B,,,^B,,][C,,C,] (3[=D,,=D,][^D,,^D,][E,,E,] | %16
 [A,=CE]2 [A,CE]>[A,CE] [_B,_D=F]2 [B,DF]2 | [=B,_D=F]2 [B,=DF]>[B,DF] [B,_EF]2 [=CEF]2 | %18
 (3[=D=F][DF][DF] [DF] z (3[=F,=C_E][F,CE][F,CE] [F,CE] z | %19
 z3/2 [_B,,=F,]<[B,,F,][=D,F,]/ [D,F,]>[F,=D] (3[F,D]z[_B,D] | %20
 z3/2 [A,,,A,,]/ (3[A,,,A,,][^G,,,^G,,][^F,,,^F,,] z3/2 [B,,,B,,]/ (3[B,,,B,,][A,,,A,,][G,,,G,,] | %21
 z3/2 [C,,C,]/ (3[C,,C,][B,,,B,,][^A,,,^A,,] (3z [=D,,=D,][C,,C,] (3[B,,,B,,][=A,,,=A,,][_A,,,_A,,] | %22
 [=G,,,=G,,] z !>![=G,B,=D]z/!>![G,B,D]/ !>![G,B,D] z !>![G,B,D] z | %23
 z3/2 [=G,,=D,=G,]<[G,,D,G,][G,,D,G,]/ [G,,D,G,]>[G,=D] (3[G,B,D]z[G,B,D] | %24
 z3/2 !>![B,^DB]/ !>![B,DB]2 z3/2 !>![B,,B,]/ (3!>![B,,B,]!>![A,,A,]!>![=G,,=G,] | %25
 z3/2 !>![F,,B,,F,]<!>![F,,B,,F,] !>![B,,,B,,]/ !>![B,,,B,,]2 !>![B,,,B,,]2 | %26
 z3/2 [E,,,E,,]<[F,,,F,,][G,,,G,,]/ [A,,,A,,]>[B,,,B,,] (3[C,,C,][D,,D,][E,,E,] | %27
 [F,,F,]3/2 [^E,,,^E,,]<[F,,,F,,][G,,,G,,]/ [A,,,A,,]>[B,,,B,,] (3[C,,C,][D,,D,][^E,,^E,] | %28
 z3/2 [G,,,G,,]<[A,,,A,,][B,,,B,,]/ [C,,C,]>[D,,D,] (3[E,,E,][^E,,^E,][F,,F,] | %29
 [^^F,,^^F,]3/2 [^^F,,,F,,]<[G,,,G,,][^A,,,^A,,]/ [B,,,B,,]>[C,,C,] (3[D,,D,][^E,,^E,][F,,F,] | %30
 z3/2 [^^F,,^^F,]<[G,,G,][=A,,=A,]/ [B,,B,]>[^A,,^A,][B,,B,]>[^B,,^B,] | %31
 [C,C]>[^B,,^B,][C,C]>[=D,=D] [C,C]>[=C,=C][=B,,=B,]>[A,,A,] | %32
 !^![G,,E,G,]2 !^![A,,E,A,]2 !^![B,,E,B,]2 !^![B,,F,B,]2 | !^![E,,B,,E,]4 z4 |] %34
V:4
 x8 | x8 | x8 | x8 | x8 | x8 | x8 | x8 | x8 | x8 | x8 | x8 | x8 | x8 | x8 | x8 | x8 | x8 | x8 | %19
 x8 | x8 | x8 | x8 | x6 (3[=FB]z[FB] | x8 | x8 | x8 | x8 | x8 | x8 | x8 | x8 | x8 | x8 |] %34

